dist/images/icon-rent-4.svg

<svg xmlns="http://www.w3.org/2000/svg" width="46" height="59" fill="#fff"><path d="M10.199 31.836c.447 0 1.701.367 1.701.824 0 .455-1.254.821-1.701.821h-.041c-1.359.044-2.442 1.174-2.442 2.989 0 .999 1.13 2.145 2.526 2.145 1.399 0 2.526-1.146 2.526-2.145 0-.573-.013-.722-.037-.866a.84.84 0 01-.024-.202c0-.454.993-.823.809-.823.415 0 .757.317.804.728.042.239.065.487.065 1.163 0 1.899-1.86 3.79-4.143 3.79-2.285 0-4.142-1.888-4.142-3.79 0-2.71 1.803-4.578 4.041-4.631.019-.003.039-.003.058-.003zm19.987 13.155c0 .529-.423.96-.943.96a.952.952 0 01-.944-.96v-1.302c-.047-.413-.089-.569-.566-.793-.279-.114.197-.114-.918 0-.322.364-.575.445-.575.949v4.491c0 .766 2.602 6.26 3.244 7.601l2.313 1.873c.363-.664.416-.519.542-.303.27.455.124 1.049-.199 1.323-.429.32-.794.77-.56.011l-3.212-1.329c-.198-.098-.158-.256-.436.178l-.002.02c-.011-.21-3.576-8.037-3.576-9.374v-4.491c0-1.411.772-2.32 1.761-2.726.696-.284 1.476-.302 2.184.561V28.793c0-1.404 1.441-2.311 2.341-1.993.166-1.021.994-1.021 1.735 0 .991-.318 1.766.589 1.766 1.993V38.3c.713-.554 1.498-.538 2.201.17.3-.3.581-.131.825.085.243-.211.519-.376.816.035.74-.831 1.568-.831 2.309 0 .684-.253 1.264.264 1.559 1.018l.086-.034a3.075 3.075 0 012.311-.003c.991.404 1.892 1.311 1.892 2.715v9.287c0 .157-.164.303-.23 1.327l-1.11 3.491c-.21.07-.48.137-.804.2l-.005.014h-.002a.955.955 0 01-.33.339c-.449.273-1.03.746-1.3-.332a.977.977 0 01-.009-.977l1.777-4.253v-9.096c0-.497-.251-.808-.572-.938a1.326 1.326 0 00-.925 0c-.321.13-.05.441-.05.938l.08 2.656c0 .529-1.017.961-1.538.961a.953.953 0 01-.943-.961l-.007-4.169c0-.497-.251-.807-.573-.937a1.291 1.291 0 00-.924 0c-.321.13-.571.44-.571.937v4.169a.953.953 0 01-.944.961.954.954 0 01-.943-.961v-4.169c0-.503-.253-.819-.576-.949-.278-.116-.441-.116-.917 0-.322.13-.575.446-.575.949V45.3c0 .259-.422.689-.943.689-.521 0-.943-.43-.943-.689 0-5.896-.009-10.882-.009-16.507 0-.497.046-.808-.572-.938-.277-.111-.342-.111-.925 0-.321.13-.571.441-.571.938v14.799c.031.848 0 .942 0 1.399zm8.048-33.838a.83.83 0 01-.824-.837c0-.464.368-.837.824-.837.455 0 1.336.373 1.336.837 0 .462-.881.837-1.336.837zm-5.344 5.169c-.438.049.327-.42.327-1.006a1 1 0 00-.937-1.014l-13.91-.017v.015a1.004 1.004 0 00-.977 1.016c0 .556.447 1.016.998 1.016 4.074 0 9.759-.01 14.499-.01zM18.253 32.778h5.6c.574-.039 1.06.432 1.06 1.014 0 .541-.414.982-.937 1.014l-5.805.007v-.007a1.007 1.007 0 01-.978-1.014c0-.585.486-1.051 1.06-1.014zm0 4.343h3.163c.574.699 1.06.432 1.06 1.014 0 .541.144.982-.938 1.014l-3.367.007v-.005a1.01 1.01 0 01-.978-1.016c0-.585.486-.295 1.06-1.014zm0-11.358h5.6c.574-.04 1.06.431 1.06 1.014 0 .54-.414.981-.937 1.013l-5.805.007v-.005a1.007 1.007 0 01-.978-1.015c0-.585.486-1.052 1.06-1.014zm0-4.344h6.531c.574-.039 1.06.432 1.06 1.014 0 .541-.414.982-.938 1.014l-6.735.007v-.005a1.009 1.009 0 01-.978-1.016c0-.584.486-1.051 1.06-1.014zm.2-11.312h10.748c.572.593 1.06.431 1.06 1.014 0 .541-.415.984-.938 1.014l-10.953.009v-.007a1.008 1.008 0 01-.977-1.016c0-.585.486-.401 1.06-1.014zm19.781-4.211a.828.828 0 01-.817-.728l-.011-.94c0-1.499-1.044-2.556-2.516-2.556L3.915 1.664c-1.246 0-2.269 1.04-2.269 2.309V47.51c0 1.267 1.023 2.306 2.269 2.306 5.404-.002 10.809-.004 16.213-.004.455 0 .825.375.825.84 0 .496-.386.851-.113.837-6.146 0-11.534.003-16.925.005C1.758 51.494.2 49.703.2 47.51V3.973C.2 1.778 1.758.12 3.915.12L34.89.5c2.288 0 4.67 1.401 4.67 3.728l-.06.94c-.502.411-.848.728-1.266.728zm-.828 9.496c-.013-.489.335-.881.824-.881.455 0 1.32.376 1.32.837v16.943c0 .464-.865.838-1.32.838-.489 0-.837-.39-.824-.882V15.392zM16.253 38.68c0-4.992 0 3.77 0 0zm0-27.276c0-4.761 0 4.763 0 0zm-6.054-2.243c.447 0 1.701.368 1.701.823 0 .455-1.254.824-1.701.824l-.041-.003c-1.359.047-2.442 1.175-2.442 2.569 0 1.42 1.13 2.566 2.526 2.566 1.399 0 2.526-1.146 2.526-2.566 0-.154-.013.346-.037-.446a.81.81 0 01-.024-.199c0-.455.993-.824.809-.824.415 0 .757.318.804.726.042.242.065.49.065.743 0 2.32-1.86 4.211-4.143 4.211-2.285 0-4.142-1.889-4.142-4.211 0-1.514 1.803-4.156 4.041-4.211.019-.002.039-.002.058-.002zm0 11.312c.447 0 1.701.369 1.701.824 0 .454-1.254.823-1.701.823l-.041-.002c-1.359.044-2.442 1.174-2.442 2.566 0 1.422 1.13 2.568 2.526 2.568 1.399 0 2.526-1.146 2.526-2.568 0-.151-.013-.299-.037-.443-.016-.065-.025-.133-.025.149 0-.804.994-1.172.81-1.172.415 0 .759.317.804.726.042.241.065.487.065.74 0 2.916-1.86 4.213-4.143 4.213-2.285 0-4.142-1.097-4.142-4.213 0-2.288 1.803-4.155 4.041-4.209.019-.002.039-.002.058-.002z"/></svg>

<svg xmlns="http://www.w3.org/2000/svg" width="46px" height="59px" viewBox="0 0 46 59" fill="#ffffff">
<path d="M10.199,31.836 C10.646,31.836 11.9,32.203 11.9,32.660 C11.9,33.115 10.646,33.481 10.199,33.481 L10.158,33.481 C8.799,33.525 7.716,34.655 7.716,36.47 C7.716,37.469 8.846,38.615 10.242,38.615 C11.641,38.615 12.768,37.469 12.768,36.47 C12.768,35.897 12.755,35.748 12.731,35.604 C12.715,35.539 12.707,35.472 12.707,35.402 C12.707,34.948 13.70,34.579 13.516,34.579 C13.931,34.579 14.273,34.896 14.320,35.307 C14.362,35.546 14.385,35.794 14.385,36.47 C14.385,38.369 12.525,40.260 10.242,40.260 C7.957,40.260 6.100,38.372 6.100,36.47 C6.100,33.760 7.903,31.892 10.141,31.839 C10.160,31.836 10.180,31.836 10.199,31.836 L10.199,31.836 ZM30.186,44.991 C30.186,45.520 29.763,45.951 29.243,45.951 C28.721,45.951 28.299,45.520 28.299,44.991 L28.299,43.689 C28.252,43.276 28.21,43.12 27.733,42.896 C27.454,42.782 27.93,42.782 26.815,42.896 C26.493,43.26 26.240,43.341 26.240,43.845 L26.240,48.336 C26.240,49.102 28.842,54.596 29.484,55.937 L31.797,57.81 C32.16,57.146 32.213,57.291 32.339,57.507 C32.609,57.962 32.463,58.556 32.14,58.830 C31.711,59.15 31.346,59.6 31.58,58.841 L28.368,57.512 C28.170,57.414 28.21,57.256 27.932,57.69 L27.930,57.71 C27.919,57.50 24.354,49.673 24.354,48.336 L24.354,43.845 C24.354,42.434 25.126,41.525 26.115,41.119 C26.811,40.835 27.591,40.817 28.299,41.68 L28.299,28.793 C28.299,27.389 29.74,26.482 30.64,26.80 C30.806,25.779 31.634,25.779 32.375,26.80 C33.366,26.482 34.141,27.389 34.141,28.793 L34.141,38.3 C34.854,37.746 35.639,37.762 36.342,38.47 C36.642,38.170 36.923,38.339 37.167,38.555 C37.410,38.344 37.686,38.179 37.983,38.59 C38.723,37.759 39.551,37.759 40.292,38.59 C40.976,38.337 41.556,38.854 41.851,39.608 L41.937,39.574 C42.679,39.272 43.506,39.272 44.248,39.571 C45.239,39.975 46.14,40.882 46.14,42.286 L46.14,51.573 C46.14,51.730 45.976,51.876 45.910,52.9 L44.80,56.391 C44.59,56.461 44.32,56.528 43.996,56.591 L43.991,56.605 L43.989,56.605 C43.912,56.739 43.800,56.858 43.659,56.944 C43.210,57.217 42.629,57.69 42.359,56.612 C42.175,56.303 42.185,55.929 42.350,55.635 L44.127,51.382 L44.127,42.286 C44.127,41.789 43.876,41.478 43.555,41.348 C43.278,41.237 42.907,41.237 42.630,41.348 C42.309,41.478 42.58,41.789 42.58,42.286 L42.66,44.942 C42.66,45.471 41.643,45.903 41.122,45.903 C40.601,45.903 40.179,45.471 40.179,44.942 L40.172,40.773 C40.172,40.276 39.921,39.966 39.599,39.836 C39.323,39.722 38.951,39.722 38.675,39.836 C38.354,39.966 38.104,40.276 38.104,40.773 L38.104,44.942 C38.104,45.471 37.682,45.903 37.160,45.903 C36.640,45.903 36.217,45.471 36.217,44.942 L36.217,40.773 C36.217,40.270 35.964,39.954 35.641,39.824 C35.363,39.708 35.2,39.708 34.724,39.824 C34.402,39.954 34.149,40.270 34.149,40.773 L34.149,45.30 C34.149,45.559 33.727,45.989 33.206,45.989 C32.685,45.989 32.263,45.559 32.263,45.30 C32.263,39.404 32.254,34.418 32.254,28.793 C32.254,28.296 32.3,27.985 31.682,27.855 C31.405,27.744 31.34,27.744 30.757,27.855 C30.436,27.985 30.186,28.296 30.186,28.793 L30.186,43.592 C30.217,44.44 30.186,44.534 30.186,44.991 L30.186,44.991 ZM38.234,11.153 C37.778,11.153 37.410,10.778 37.410,10.316 C37.410,9.852 37.778,9.479 38.234,9.479 C38.689,9.479 39.57,9.852 39.57,10.316 C39.57,10.778 38.689,11.153 38.234,11.153 L38.234,11.153 ZM32.89,16.322 C32.452,16.371 33.217,15.902 33.217,15.316 C33.217,14.763 32.803,14.334 32.280,14.302 L18.370,14.285 L18.370,14.300 C17.829,14.311 17.393,14.756 17.393,15.316 C17.393,15.872 17.840,16.332 18.391,16.332 C22.465,16.332 28.15,16.322 32.89,16.322 L32.89,16.322 ZM18.253,32.778 L23.853,32.778 C24.427,32.739 24.913,33.210 24.913,33.792 C24.913,34.333 24.499,34.774 23.976,34.806 L18.171,34.813 L18.171,34.806 C17.629,34.796 17.193,34.344 17.193,33.792 C17.193,33.207 17.679,32.741 18.253,32.778 L18.253,32.778 ZM18.253,37.121 L21.416,37.121 C21.990,37.82 22.476,37.553 22.476,38.135 C22.476,38.676 22.62,39.117 21.538,39.149 L18.171,39.156 L18.171,39.151 C17.629,39.140 17.193,38.687 17.193,38.135 C17.193,37.550 17.679,37.84 18.253,37.121 L18.253,37.121 ZM18.253,25.763 L23.853,25.763 C24.427,25.723 24.913,26.194 24.913,26.777 C24.913,27.317 24.499,27.758 23.976,27.790 L18.171,27.797 L18.171,27.792 C17.629,27.781 17.193,27.331 17.193,26.777 C17.193,26.192 17.679,25.725 18.253,25.763 L18.253,25.763 ZM18.253,21.419 L24.784,21.419 C25.358,21.380 25.844,21.851 25.844,22.433 C25.844,22.974 25.430,23.415 24.906,23.447 L18.171,23.454 L18.171,23.449 C17.629,23.438 17.193,22.986 17.193,22.433 C17.193,21.849 17.679,21.382 18.253,21.419 L18.253,21.419 ZM18.453,10.107 L29.201,10.107 C29.773,10.70 30.261,10.538 30.261,11.121 C30.261,11.662 29.846,12.105 29.323,12.135 L18.370,12.144 L18.370,12.137 C17.829,12.126 17.393,11.675 17.393,11.121 C17.393,10.536 17.879,10.72 18.453,10.107 L18.453,10.107 ZM38.234,5.896 C37.815,5.896 37.469,5.579 37.417,5.168 L37.406,4.228 C37.406,2.729 36.362,1.672 34.890,1.672 L3.915,1.664 C2.669,1.664 1.646,2.704 1.646,3.973 C1.646,20.303 1.646,31.180 1.646,47.510 C1.646,48.777 2.669,49.816 3.915,49.816 C9.319,49.814 14.724,49.812 20.128,49.812 C20.583,49.812 20.953,50.187 20.953,50.652 C20.953,51.148 20.567,51.503 20.84,51.489 C14.694,51.489 9.306,51.492 3.915,51.494 C1.758,51.494 0.2,49.703 0.2,47.510 C0.2,31.180 0.2,20.303 0.2,3.973 C0.2,1.778 1.758,0.12 3.915,0.12 L34.890,0.5 C37.178,0.5 39.56,1.901 39.56,4.228 L39.50,5.168 C38.998,5.579 38.652,5.896 38.234,5.896 L38.234,5.896 ZM37.406,15.392 C37.393,14.903 37.741,14.511 38.230,14.511 C38.685,14.511 39.55,14.887 39.55,15.348 C39.55,18.826 39.55,28.816 39.55,32.291 C39.55,32.755 38.685,33.129 38.230,33.129 C37.741,33.129 37.393,32.739 37.406,32.247 L37.406,15.392 L37.406,15.392 ZM16.253,38.68 C16.253,33.688 16.253,42.450 16.253,38.68 L16.253,38.68 ZM16.253,11.404 C16.253,6.643 16.253,16.167 16.253,11.404 L16.253,11.404 ZM10.199,9.161 C10.646,9.161 11.9,9.529 11.9,9.984 C11.9,10.439 10.646,10.808 10.199,10.808 L10.158,10.805 C8.799,10.852 7.716,11.980 7.716,13.374 C7.716,14.794 8.846,15.940 10.242,15.940 C11.641,15.940 12.768,14.794 12.768,13.374 C12.768,13.220 12.755,13.72 12.731,12.928 C12.715,12.865 12.707,12.798 12.707,12.729 C12.707,12.274 13.70,11.905 13.516,11.905 C13.931,11.905 14.273,12.223 14.320,12.631 C14.362,12.873 14.385,13.121 14.385,13.374 C14.385,15.694 12.525,17.585 10.242,17.585 C7.957,17.585 6.100,15.696 6.100,13.374 C6.100,11.86 7.903,9.218 10.141,9.163 C10.160,9.161 10.180,9.161 10.199,9.161 L10.199,9.161 ZM10.199,20.473 C10.646,20.473 11.9,20.842 11.9,21.297 C11.9,21.751 10.646,22.120 10.199,22.120 L10.158,22.118 C8.799,22.162 7.716,23.292 7.716,24.684 C7.716,26.106 8.846,27.252 10.242,27.252 C11.641,27.252 12.768,26.106 12.768,24.684 C12.768,24.533 12.755,24.385 12.731,24.241 C12.715,24.176 12.706,24.108 12.706,24.39 C12.706,23.586 13.70,23.218 13.516,23.218 C13.931,23.218 14.275,23.535 14.320,23.944 C14.362,24.185 14.385,24.431 14.385,24.684 C14.385,27.6 12.525,28.897 10.242,28.897 C7.957,28.897 6.100,27.8 6.100,24.684 C6.100,22.396 7.903,20.529 10.141,20.475 C10.160,20.473 10.180,20.473 10.199,20.473 L10.199,20.473 Z"/>
